assets/base/img/common/icon_facebook-circle.svg

<svg width="54" height="54" viewBox="0 0 54 54" fill="none" xmlns="http://www.w3.org/2000/svg">
<rect width="54" height="54" rx="27" fill="#1877F2"/>
<path fill-rule="evenodd" clip-rule="evenodd" d="M31.2809 30.1375L31.7686 26.9671H28.7178V24.9098C28.7178 24.0424 29.1439 23.197 30.5104 23.197H31.8975V20.4979C31.8975 20.4979 30.6386 20.2837 29.4351 20.2837C26.9225 20.2837 25.2803 21.802 25.2803 24.5508V26.9671H22.4873V30.1375H25.2803V37.8016C25.8403 37.8892 26.4143 37.9348 26.999 37.9348C27.5837 37.9348 28.1577 37.8892 28.7178 37.8016V30.1375H31.2809" fill="white"/>
<path fill-rule="evenodd" clip-rule="evenodd" d="M38 26.9677C38 20.9104 33.0751 16 27 16C20.9249 16 16 20.9104 16 26.9677C16 32.442 20.0225 36.9794 25.2813 37.8022V30.1381H22.4883V26.9677H25.2813V24.5514C25.2813 21.8026 26.9235 20.2843 29.4361 20.2843C30.6396 20.2843 31.8984 20.4985 31.8984 20.4985V23.1976H30.5114C29.1449 23.1976 28.7188 24.043 28.7188 24.9103V26.9677H31.7695L31.2818 30.1381H28.7188V37.8022C33.9775 36.9794 38 32.442 38 26.9677" fill="#1877F2"/>
</svg>

<svg width="54" height="54" fill="none" xmlns="http://www.w3.org/2000/svg"><rect width="54" height="54" rx="27" fill="#1877F2"/><path fill-rule="evenodd" clip-rule="evenodd" d="M31.28 30.137l.489-3.17h-3.051V24.91c0-.868.426-1.713 1.792-1.713h1.387v-2.7s-1.258-.213-2.462-.213c-2.512 0-4.155 1.518-4.155 4.267v2.416h-2.793v3.17h2.793v7.665a11.115 11.115 0 003.438 0v-7.665h2.563" fill="#fff"/><path fill-rule="evenodd" clip-rule="evenodd" d="M38 26.968C38 20.91 33.075 16 27 16s-11 4.91-11 10.968c0 5.474 4.023 10.011 9.281 10.834v-7.664h-2.793v-3.17h2.793V24.55c0-2.748 1.643-4.267 4.155-4.267 1.204 0 2.462.215 2.462.215v2.699h-1.387c-1.366 0-1.792.845-1.792 1.712v2.058h3.05l-.487 3.17h-2.563v7.664C33.977 36.98 38 32.442 38 26.968" fill="#1877F2"/></svg>
